icons/svg/icons8/wikipedia.svg

<?xml version="1.0" encoding="utf-8"?>
<!-- Generator: Adobe Illustrator 15.0.0, SVG Export Plug-In . SVG Version: 6.00 Build 0)  -->
<!DOCTYPE svg PUBLIC "-//W3C//DTD SVG 1.1//EN" "http://www.w3.org/Graphics/SVG/1.1/DTD/svg11.dtd">
<svg version="1.1" id="Layer_1" xmlns="http://www.w3.org/2000/svg" xmlns:xlink="http://www.w3.org/1999/xlink" x="0px" y="0px"
	 width="26px" height="26px" viewBox="0 0 26 26" enable-background="new 0 0 26 26" xml:space="preserve">
<rect fill="none" width="26" height="26"/>
<path fill="#333333" d="M21.125,0H4.875C2.182,0,0,2.182,0,4.875v16.25C0,23.818,2.182,26,4.875,26h16.25
	C23.818,26,26,23.818,26,21.125V4.875C26,2.182,23.818,0,21.125,0z M24.25,8.828c0,0.138-0.111,0.25-0.25,0.25h-1.35l-6.122,13.03
	c-0.04,0.086-0.127,0.143-0.223,0.144c-0.001,0-0.003,0-0.003,0c-0.095,0-0.182-0.053-0.224-0.138l-2.905-5.762l-3.135,5.769
	c-0.045,0.083-0.125,0.129-0.227,0.131c-0.094-0.003-0.179-0.058-0.219-0.143L3.402,9.078H2c-0.138,0-0.25-0.112-0.25-0.25v-0.66
	c0-0.138,0.112-0.25,0.25-0.25h4.993c0.138,0,0.25,0.112,0.25,0.25v0.66c0,0.138-0.112,0.25-0.25,0.25H5.918l4.272,9.854
	l2.223-4.153l-2.818-5.7H8.917c-0.138,0-0.25-0.112-0.25-0.25v-0.66c0-0.138,0.112-0.25,0.25-0.25h3.693
	c0.138,0,0.25,0.112,0.25,0.25v0.66c0,0.138-0.112,0.25-0.25,0.25h-0.65l1.621,3.547l1.93-3.547h-1.184
	c-0.139,0-0.25-0.112-0.25-0.25v-0.66c0-0.138,0.111-0.25,0.25-0.25h3.588c0.139,0,0.25,0.112,0.25,0.25v0.66
	c0,0.138-0.111,0.25-0.25,0.25h-0.787l-2.817,5.118l2.296,4.72l4.43-9.838h-1.404c-0.138,0-0.25-0.112-0.25-0.25v-0.66
	c0-0.138,0.112-0.25,0.25-0.25H24c0.139,0,0.25,0.112,0.25,0.25V8.828z"/>
</svg>

<svg width="26" height="26" viewBox="0 0 26 26" fill="none" xmlns="http://www.w3.org/2000/svg">
<path d="M21.125 0H4.875C2.182 0 0 2.182 0 4.875V21.125C0 23.818 2.182 26 4.875 26H21.125C23.818 26 26 23.818 26 21.125V4.875C26 2.182 23.818 0 21.125 0ZM24.25 8.828C24.25 8.966 24.139 9.078 24 9.078H22.65L16.528 22.108C16.488 22.194 16.401 22.251 16.305 22.252C16.304 22.252 16.302 22.252 16.302 22.252C16.207 22.252 16.12 22.199 16.078 22.114L13.173 16.352L10.038 22.121C9.993 22.204 9.913 22.25 9.811 22.252C9.717 22.249 9.632 22.194 9.592 22.109L3.402 9.078H2C1.862 9.078 1.75 8.966 1.75 8.828V8.168C1.75 8.03 1.862 7.918 2 7.918H6.993C7.131 7.918 7.243 8.03 7.243 8.168V8.828C7.243 8.966 7.131 9.078 6.993 9.078H5.918L10.19 18.932L12.413 14.779L9.595 9.079H8.917C8.779 9.079 8.667 8.967 8.667 8.829V8.169C8.667 8.031 8.779 7.919 8.917 7.919H12.61C12.748 7.919 12.86 8.031 12.86 8.169V8.829C12.86 8.967 12.748 9.079 12.61 9.079H11.96L13.581 12.626L15.511 9.079H14.327C14.188 9.079 14.077 8.967 14.077 8.829V8.169C14.077 8.031 14.188 7.919 14.327 7.919H17.915C18.054 7.919 18.165 8.031 18.165 8.169V8.829C18.165 8.967 18.054 9.079 17.915 9.079H17.128L14.311 14.197L16.607 18.917L21.037 9.079H19.633C19.495 9.079 19.383 8.967 19.383 8.829V8.169C19.383 8.031 19.495 7.919 19.633 7.919H24C24.139 7.919 24.25 8.031 24.25 8.169V8.828Z" fill="#333333"/>
</svg>
